Yaru++/actions/16/snap-text-baseline.svg

<svg viewBox="0 0 24 24" xmlns="http://www.w3.org/2000/svg">
  <path d="m10.910156 4-3.3144529 9.59375-.1230469.40625-1.1054687 3h.6328125v1h.6582031l1.625-4.4375h5.4335939l1.625 4.4375h1.658203l-1.472656-4-.123047-.40625-3.314453-9.59375h-.214844-1.75zm1.105469 1.9375 2.179687 6.34375h-4.3906245z" fill="#808080"/>
  <path d="m4 16v4h4v-4zm1 1h2v2h-2z" fill="#1d99f3"/>
</svg>

<svg xmlns="http://www.w3.org/2000/svg" viewBox="0 0 24 24">
 <defs>
  <style id="current-color-scheme" type="text/css">
   .ColorScheme-Text { color:#808080; } .ColorScheme-Highlight { color:#1d99f3; }
  </style>
 </defs>
 <path style="fill:currentColor" class="ColorScheme-Text" d="M 10.910156 4 L 7.5957031 13.59375 L 7.4726562 14 L 6.3671875 17 L 7 17 L 7 18 L 7.6582031 18 L 9.2832031 13.5625 L 14.716797 13.5625 L 16.341797 18 L 18 18 L 16.527344 14 L 16.404297 13.59375 L 13.089844 4 L 12.875 4 L 11.125 4 L 10.910156 4 z M 12.015625 5.9375 L 14.195312 12.28125 L 9.8046875 12.28125 L 12.015625 5.9375 z"/>
 <path style="fill:currentColor" class="ColorScheme-Highlight" d="M 4 16 L 4 20 L 8 20 L 8 16 L 4 16 z M 5 17 L 7 17 L 7 19 L 5 19 L 5 17 z"/>
</svg>
